X: 202
T: The Mossy Banks
R: reel
M: C|
L: 1/8
K: Gmaj
|:gedB ~G3A|BAGB AGEG|DEGA Bd~d2|edgd e/f/g fa|
gedB ~G3A|BAGB AGEG|DEGA Bdge|1 dBAc BGGB:|2 dBAc BGGF||
|:~G3B ABGE|DGBG AGEG|Bd~d2 edge|dBGA BAAB|
~G3B ABGE|DGBG AGEG|Bd~d2 edge|1 dBAc BGGF:|2 dBAc BG B/c/d||
|:g2dg egde|gabg agef|g2dg egdB|ABGA BG B/c/d|
g2dg egde|gabg agef|~g3a gfed|e/f/g fa gdef:| 

